X:1
T:God Bless Our Homeland Ghana
T:God Bless Our Homeland Ghana
T:Ghana National Anthem
T:Philip Gbeho
C:Philip Gbeho
L:1/8
Q:1/4=70
M:4/4
K:G
V:1 treble nm="Violin" snm="Vln."
V:1
 B2 B>B d2 G2 | c4 B3 G | e2 d2 c2 B2 | A2 A2 A4 | B2 B>B d2 G2 | c4 B3 B | %6
w: God bless our home- land|Gha- na, and|make our na- tion|great and strong.|Bold to def- end for|e- ver, the|
 A2 d2 (3(de)d (3(^cB)c | d6 (3(DE)F | G2 (G>A) B2 (B>A) | ^G2 (A>B) c2 (3(EF)=G | A2 A>B c2 ^c2 | %11
w: cause of fre- e- e- dom and of|right. Fil- lin our|hearts wi- th true hu- u-|mi- li- i- ty ma- ke us|che- ri- sh, fear- less,|
 d2 (d>c) B3 G | e2 d2 c2 B2 | A>G F>E D>D E>F | G2 B2 (3(BcB) (3(AG)A | (G6 G) z/ G/ | %16
w: ho- ne- es- ty. And|help us to re-|sist op- pres- sor's rule with all our|will and mi- gh- t for- e- ver|more. * And|
 e2 d2 c2 B2 | A>G F>E D>D E>F | G2 B2 (3(BcB) (3(AG)A | G8 |] %20
w: help us to re-|sist op- pres- sor's rule with all our|will and mi- gh- t for- e- ver|more.|

